svg/s/TC.svg

<svg width="16" height="12" viewBox="0 0 16 12" fill="none" xmlns="http://www.w3.org/2000/svg">
<g clip-path="url(#clip0_270_55145)">
<rect width="16" height="12" fill="white"/>
<path fill-rule="evenodd" clip-rule="evenodd" d="M0 0V12H16V0H0Z" fill="#2E42A5"/>
<g clip-path="url(#clip1_270_55145)">
<rect width="9" height="7" fill="#2E42A5"/>
<path d="M-1.00208 6.49993L0.9784 7.36853L9.045 0.944391L10.0897 -0.346375L7.97182 -0.636686L4.68165 2.13166L2.0334 3.99688L-1.00208 6.49993Z" fill="#F7FCFF"/>
<path d="M-0.730957 7.10849L0.278004 7.61255L9.71451 -0.466309H8.29782L-0.730957 7.10849Z" fill="#F50100"/>
<path d="M10.0022 6.49993L8.02172 7.36853L-0.0448761 0.944391L-1.08953 -0.346375L1.0283 -0.636686L4.31847 2.13166L6.96673 3.99688L10.0022 6.49993Z" fill="#F7FCFF"/>
<path d="M9.93457 6.93667L8.92561 7.44073L4.90745 3.98176L3.71615 3.59529L-1.1901 -0.341973H0.226597L5.13009 3.50184L6.43256 3.96525L9.93457 6.93667Z" fill="#F50100"/>
<path fill-rule="evenodd" clip-rule="evenodd" d="M4.99226 0H3.99226V3H0V4H3.99226V7H4.99226V4H9V3H4.99226V0Z" fill="#F50100"/>
<path fill-rule="evenodd" clip-rule="evenodd" d="M3.24226 -0.75H5.74226V2.25H9.75V4.75H5.74226V7.75H3.24226V4.75H-0.75V2.25H3.24226V-0.75ZM3.99226 3H0V4H3.99226V7H4.99226V4H9V3H4.99226V0H3.99226V3Z" fill="#F7FCFF"/>
</g>
</g>
<defs>
<clipPath id="clip0_270_55145">
<rect width="16" height="12" fill="white"/>
</clipPath>
<clipPath id="clip1_270_55145">
<rect width="9" height="7" fill="white"/>
</clipPath>
</defs>
</svg>

<svg width="16" height="12" fill="none" xmlns="http://www.w3.org/2000/svg">
  <mask id="a" maskUnits="userSpaceOnUse" x="0" y="0" width="16" height="12">
    <path fill="#fff" d="M0 0h16v12H0z"/>
  </mask>
  <g mask="url(#a)">
    <path fill-rule="evenodd" clip-rule="evenodd" d="M0 0v12h16V0H0z" fill="#2E42A5"/>
    <mask id="b" maskUnits="userSpaceOnUse" x="0" y="0" width="16" height="12">
      <path fill-rule="evenodd" clip-rule="evenodd" d="M0 0v12h16V0H0z" fill="#fff"/>
    </mask>
    <g mask="url(#b)">
      <path fill-rule="evenodd" clip-rule="evenodd" d="M10.523 5.016s.443 5.966 2.441 5.966c1.998 0 2.49-5.966 2.49-5.966h-4.93z" fill="#FECA00" stroke="#F7FCFF" stroke-width=".25"/>
      <path fill-rule="evenodd" clip-rule="evenodd" d="M12.956 5.31l.073-.082.347.221c.05-.078.14-.114.265-.108l-.127-.193.103-.055.24.29.024.007-.06-.376.12-.014.079.487h.006a.21.21 0 01.111.042L14.223 5l.12.014-.06.376.024-.008.24-.289.103.055-.127.193c.126-.006.215.03.266.108l.347-.22.073.082-.38.242a.493.493 0 01.007.09V5.7l.525-.115.039.097-.564.2v.068l.535-.043.016.103-.551.08v.118l.552.09-.022.102-.53-.079v1.15h-.081V6.308l-.356-.053c-.04.281-.085.635-.078.763.006.127.1.18.167.219.051.03.086.05.048.086-.085.083-.297.163-.51.163-.213 0-.423-.08-.468-.163-.008-.015-.007-.014 0-.006.033.039.2.23.212-.299a2.894 2.894 0 00-.084-.751l-.276.041V7.47h-.082V6.321l-.53.08-.022-.102.552-.091V6.09l-.55-.08.016-.103.534.043v-.068l-.564-.2.039-.097.525.115v-.056c0-.033.003-.063.008-.09l-.38-.243zm.695.827l.005.017-.246.04v-.092l.24.035zm.005-.38l-.01.012-.236-.051v-.074l.001-.043.245.156zm.156-.155a1.51 1.51 0 00-.08.075l-.29-.185c.04-.071.121-.097.246-.079l.124.19zm.535.128l.375-.239c-.04-.07-.12-.096-.246-.078l-.174.265.045.052zm.127.05l.279-.179a.515.515 0 01.002.043v.074l-.281.061zm.112.19l.169-.059v.046l-.169.014zm-.13.175l.299-.043v.092l-.299-.05zM13.41 5.91v.046l.168.014-.168-.06z" fill="#CF6900"/>
      <path fill-rule="evenodd" clip-rule="evenodd" d="M12.439 7.921s-.657 1.1-.657 1.767c0 0 .448.355 1.217.355.77 0 1.166-.355 1.166-.355a23.99 23.99 0 00-.585-1.767h-1.141z" fill="#00A727"/>
      <path fill-rule="evenodd" clip-rule="evenodd" d="M12.47 7.618a.549.549 0 011.098 0v.375h-1.097v-.375z" fill="#E31D1C"/>
      <path fill-rule="evenodd" clip-rule="evenodd" d="M10.76 6.417s.867.178.867.46c0 .282.348.383.434.307.086-.076.69-.13.69-.496 0-.368.05-.467-.096-.7-.147-.234-.453-1.022-.523-.706-.07.316-.177.55-.373.361-.195-.188-.447-.586-.535-.361-.088.225.28.451 0 .451s-.083.015-.083.206c0 .19.034.37-.174.37s-.208.108-.208.108z" fill="#FF927F"/>
      <mask id="c" maskUnits="userSpaceOnUse" x="0" y="0" width="9" height="7">
        <path fill="#fff" d="M0 0h9v7H0z"/>
      </mask>
      <g mask="url(#c)">
        <path d="M-1.002 6.5l1.98.868L9.045.944l1.045-1.29-2.118-.29-3.29 2.768-2.649 1.865L-1.002 6.5z" fill="#F7FCFF"/>
        <path d="M-.731 7.108l1.009.505 9.437-8.08H8.298L-.731 7.109z" fill="#F50100"/>
        <path d="M10.002 6.5l-1.98.868L-.045.944-1.09-.346l2.118-.29 3.29 2.768 2.649 1.865L10.002 6.5z" fill="#F7FCFF"/>
        <path d="M9.935 6.937l-1.01.504-4.018-3.46-1.19-.386L-1.19-.342H.227L5.13 3.502l1.303.463 3.502 2.972z" fill="#F50100"/>
        <mask id="d" maskUnits="userSpaceOnUse" x="-1" y="-1" width="11" height="9" fill="#000">
          <path fill="#fff" d="M-1-1h11v9H-1z"/>
          <path fill-rule="evenodd" clip-rule="evenodd" d="M4.992 0h-1v3H0v1h3.992v3h1V4H9V3H4.992V0z"/>
        </mask>
        <path fill-rule="evenodd" clip-rule="evenodd" d="M4.992 0h-1v3H0v1h3.992v3h1V4H9V3H4.992V0z" fill="#F50100"/>
        <path d="M3.992 0v-.75h-.75V0h.75zm1 0h.75v-.75h-.75V0zm-1 3v.75h.75V3h-.75zM0 3v-.75h-.75V3H0zm0 1h-.75v.75H0V4zm3.992 0h.75v-.75h-.75V4zm0 3h-.75v.75h.75V7zm1 0v.75h.75V7h-.75zm0-3v-.75h-.75V4h.75zM9 4v.75h.75V4H9zm0-1h.75v-.75H9V3zM4.992 3h-.75v.75h.75V3zm-1-2.25h1v-1.5h-1v1.5zM4.742 3V0h-1.5v3h1.5zM0 3.75h3.992v-1.5H0v1.5zM.75 4V3h-1.5v1h1.5zm3.242-.75H0v1.5h3.992v-1.5zM4.742 7V4h-1.5v3h1.5zm.25-.75h-1v1.5h1v-1.5zM4.242 4v3h1.5V4h-1.5zM9 3.25H4.992v1.5H9v-1.5zM8.25 3v1h1.5V3h-1.5zm-3.258.75H9v-1.5H4.992v1.5zM4.242 0v3h1.5V0h-1.5z" fill="#F7FCFF" mask="url(#d)"/>
      </g>
    </g>
  </g>
</svg>
